X:103
T: St. Martinslied
N: D0152
O: Europa, Mitteleuropa, Deutschland, Niederfranken
N: haeufig wiederholte Taktformeln; Inzipit = Variante zum Lied
R: Ansinge - Lied
M: 4/4
L: 1/8
K: C
G2G2A2A2 | G2G2E4
G2G2A2A2 | G2G2E2
A2 | G4E2A2 | G4E2E2 | GGG2E4
G2G2A2A2 | G2G2E4
G4A2A2 | G4E4
G2G2A2A2 | G4E4
G2G2G2EE | A2A2A4
G2G2G2A2 | F2F2F4
G4E4 | G4E4
G2G2A2A2 | G4E4
G2G2G2E2 | A2A2A4
FFFFF2G2 | E2E2E4

